X:1
T:Chevy Chase
M:6/8
L:1/4
K:G
 D/2| G A/2 B G/2| B A/2 G B/2| c B/2 A ^G/2| A3/2- A A/2| c c/2 d c/2|\
 B A/2 B c/2| d/2e/2d/2 A B/2| G3/2- G||
